dist/img/svg/vk-icon.svg

<svg width="130" height="130" viewBox="0 0 130 130" fill="none" xmlns="http://www.w3.org/2000/svg">
<path d="M31.861 114L35.459 104.662H33.191L30.615 111.844L28.025 104.662H25.757L29.369 114H31.861ZM44.0153 114L40.0533 109.044L43.7633 104.662H41.3133L38.0093 108.834V104.662H36.0213V114H38.0093V111.13L38.7373 110.262L41.5653 114H44.0153ZM48.3894 114.168C51.2174 114.168 53.2754 112.152 53.2754 109.338C53.2754 106.524 51.2174 104.508 48.3894 104.508C45.5754 104.508 43.5174 106.524 43.5174 109.338C43.5174 112.152 45.5754 114.168 48.3894 114.168ZM48.3894 112.404C46.6674 112.404 45.5614 111.074 45.5614 109.338C45.5614 107.588 46.6674 106.272 48.3894 106.272C50.1114 106.272 51.2314 107.588 51.2314 109.338C51.2314 111.074 50.1114 112.404 48.3894 112.404ZM62.7285 114V104.662H60.7405V110.528L56.4145 104.662H54.3705V114H56.3585V107.91L60.8105 114H62.7285ZM68.4277 114V106.412H71.1437V104.662H63.6957V106.412H66.4257V114H68.4277ZM79.9238 114L76.3258 104.662H73.8338L70.2218 114H72.4898L73.0778 112.418H77.0818L77.6558 114H79.9238ZM76.5358 110.668H73.6238L75.0798 106.65L76.5358 110.668ZM88.4801 114L84.5181 109.044L88.2281 104.662H85.7781L82.4741 108.834V104.662H80.4861V114H82.4741V111.13L83.2021 110.262L86.0301 114H88.4801ZM93.2445 114V106.412H95.9605V104.662H88.5125V106.412H91.2425V114H93.2445ZM103.543 114V112.25H98.9229V110.136H103.445V108.386H98.9229V106.412H103.543V104.662H96.9349V114H103.543Z" fill="white"/>
<g opacity="0.5" filter="url(#filter0_f)">
<circle cx="65" cy="65" r="35" fill="#4C75A3"/>
</g>
<circle cx="65" cy="50" r="40" fill="#4C75A3"/>
<path d="M80.0879 41.6641C79.9707 42.25 79.502 43.207 78.6816 44.5352C77.9004 45.8633 77.1777 47.0352 76.5137 48.0508C75.8496 49.0273 75.498 49.5352 75.459 49.5742C75.2246 49.9258 75.1074 50.1797 75.1074 50.3359C75.1074 50.4922 75.2246 50.7656 75.459 51.1562C75.459 51.1562 75.5762 51.293 75.8105 51.5664C76.084 51.8398 76.3965 52.1523 76.748 52.5039C77.0996 52.8555 77.4902 53.2656 77.9199 53.7344C78.3496 54.2031 78.7402 54.6719 79.0918 55.1406C79.4824 55.5703 79.8145 56.0195 80.0879 56.4883C80.4004 56.957 80.6152 57.3477 80.7324 57.6602C81.0059 58.6367 80.6152 59.125 79.5605 59.125H76.1035C75.8301 59.125 75.5957 59.0859 75.4004 59.0078C75.2051 58.9297 74.9902 58.793 74.7559 58.5977C74.5215 58.4023 74.3066 58.1875 74.1113 57.9531C73.916 57.7188 73.623 57.3867 73.2324 56.957C72.8418 56.5273 72.4512 56.1172 72.0605 55.7266C70.498 54.2422 69.3457 53.5 68.6035 53.5C68.1348 53.5 67.8613 53.6367 67.7832 53.9102C67.7051 54.1836 67.666 54.9648 67.666 56.2539C67.7051 56.8789 67.7246 57.3867 67.7246 57.7773C67.7246 58.2461 67.5684 58.5977 67.2559 58.832C66.9434 59.0273 66.2598 59.125 65.2051 59.125C63.3691 59.125 61.5137 58.5781 59.6387 57.4844C57.7637 56.3906 56.123 54.8281 54.7168 52.7969C53.3887 51 52.2754 49.2227 51.377 47.4648C50.5176 45.668 49.9512 44.3008 49.6777 43.3633C49.4043 42.4258 49.2676 41.7617 49.2676 41.3711C49.2676 40.707 49.6582 40.375 50.4395 40.375H53.8965C54.3262 40.375 54.6387 40.4727 54.834 40.668C55.0684 40.8633 55.2637 41.2148 55.4199 41.7227C56.2402 44.1055 57.2363 46.2344 58.4082 48.1094C59.6191 49.9844 60.5371 50.9219 61.1621 50.9219C61.3965 50.9219 61.5527 50.8438 61.6309 50.6875C61.748 50.4922 61.8066 50.1406 61.8066 49.6328V44.5352C61.7676 43.9883 61.6699 43.5195 61.5137 43.1289C61.3574 42.7383 61.2012 42.4648 61.0449 42.3086C60.8887 42.1133 60.7324 41.918 60.5762 41.7227C60.459 41.5273 60.4004 41.3516 60.4004 41.1953C60.4004 41.0391 60.4395 40.9023 60.5176 40.7852C60.5957 40.668 60.6934 40.5703 60.8105 40.4922C60.9668 40.4141 61.123 40.375 61.2793 40.375H66.7285C67.3535 40.375 67.666 40.8047 67.666 41.6641V48.4609C67.666 49.125 67.8418 49.457 68.1934 49.457C68.584 49.457 69.1309 49.1055 69.834 48.4023C70.5762 47.582 71.2988 46.5859 72.002 45.4141C72.7051 44.2422 73.2324 43.2656 73.584 42.4844L74.1113 41.3711C74.3848 40.707 74.873 40.375 75.5762 40.375H79.0332C79.9707 40.375 80.3223 40.8047 80.0879 41.6641Z" fill="white"/>
<defs>
<filter id="filter0_f" x="0" y="0" width="130" height="130" filterUnits="userSpaceOnUse" color-interpolation-filters="sRGB">
<feFlood flood-opacity="0" result="BackgroundImageFix"/>
<feBlend mode="normal" in="SourceGraphic" in2="BackgroundImageFix" result="shape"/>
<feGaussianBlur stdDeviation="15" result="effect1_foregroundBlur"/>
</filter>
</defs>
</svg>

<svg width="130" height="130" viewBox="0 0 130 130" fill="none" xmlns="http://www.w3.org/2000/svg"><path d="M31.861 114l3.598-9.338h-2.268l-2.576 7.182-2.59-7.182h-2.268L29.369 114h2.492zm12.154 0l-3.962-4.956 3.71-4.382h-2.45l-3.304 4.172v-4.172h-1.988V114h1.988v-2.87l.728-.868L41.565 114h2.45zm4.374.168c2.828 0 4.886-2.016 4.886-4.83s-2.058-4.83-4.886-4.83c-2.814 0-4.872 2.016-4.872 4.83s2.058 4.83 4.872 4.83zm0-1.764c-1.722 0-2.828-1.33-2.828-3.066 0-1.75 1.106-3.066 2.828-3.066 1.722 0 2.842 1.316 2.842 3.066 0 1.736-1.12 3.066-2.842 3.066zM62.73 114v-9.338h-1.99v5.866l-4.326-5.866H54.37V114h1.989v-6.09L60.81 114h1.918zm5.699 0v-7.588h2.716v-1.75h-7.448v1.75h2.73V114h2.002zm11.496 0l-3.598-9.338h-2.492L70.222 114h2.268l.588-1.582h4.004l.574 1.582h2.268zm-3.388-3.332h-2.912l1.456-4.018 1.456 4.018zM88.48 114l-3.962-4.956 3.71-4.382h-2.45l-3.304 4.172v-4.172h-1.988V114h1.988v-2.87l.728-.868L86.03 114h2.45zm4.764 0v-7.588h2.716v-1.75h-7.447v1.75h2.73V114h2.002zm10.299 0v-1.75h-4.62v-2.114h4.522v-1.75h-4.522v-1.974h4.62v-1.75h-6.608V114h6.608z" fill="#fff"/><g opacity=".5" filter="url(#filter0_f)"><circle cx="65" cy="65" r="35" fill="#4C75A3"/></g><circle cx="65" cy="50" r="40" fill="#4C75A3"/><path d="M80.088 41.664c-.117.586-.586 1.543-1.406 2.871a88.18 88.18 0 01-2.168 3.516c-.664.976-1.016 1.484-1.055 1.523-.234.352-.352.606-.352.762 0 .156.118.43.352.82l.352.41.937.938c.352.352.742.762 1.172 1.23.43.47.82.938 1.172 1.407.39.43.722.879.996 1.347.312.469.527.86.644 1.172.274.977-.117 1.465-1.171 1.465h-3.458a1.92 1.92 0 01-.703-.117 2.488 2.488 0 01-.644-.41 5.026 5.026 0 01-.645-.645 33.443 33.443 0 00-.879-.996c-.39-.43-.78-.84-1.171-1.23-1.563-1.485-2.715-2.227-3.458-2.227-.468 0-.742.137-.82.41-.078.274-.117 1.055-.117 2.344.04.625.059 1.133.059 1.523 0 .47-.157.82-.47 1.055-.312.195-.995.293-2.05.293-1.836 0-3.691-.547-5.566-1.64-1.875-1.094-3.516-2.657-4.922-4.688-1.328-1.797-2.442-3.574-3.34-5.332-.86-1.797-1.426-3.164-1.7-4.102-.273-.937-.41-1.601-.41-1.992 0-.664.391-.996 1.172-.996h3.458c.43 0 .742.098.937.293.234.195.43.547.586 1.055.82 2.383 1.816 4.511 2.988 6.386 1.211 1.875 2.13 2.813 2.754 2.813.235 0 .39-.078.469-.234.117-.196.176-.547.176-1.055v-5.098c-.04-.547-.137-1.015-.293-1.406-.157-.39-.313-.664-.47-.82-.155-.196-.312-.391-.468-.586-.117-.196-.176-.371-.176-.528 0-.156.04-.293.118-.41.078-.117.175-.215.292-.293a1.04 1.04 0 01.47-.117h5.448c.626 0 .938.43.938 1.29v6.796c0 .664.176.996.527.996.391 0 .938-.352 1.641-1.055.742-.82 1.465-1.816 2.168-2.988.703-1.172 1.23-2.148 1.582-2.93l.527-1.113c.274-.664.762-.996 1.465-.996h3.457c.938 0 1.29.43 1.055 1.29z" fill="#fff"/><defs><filter id="filter0_f" x="0" y="0" width="130" height="130" filterUnits="userSpaceOnUse" color-interpolation-filters="sRGB"><feFlood flood-opacity="0" result="BackgroundImageFix"/><feBlend in="SourceGraphic" in2="BackgroundImageFix" result="shape"/><feGaussianBlur stdDeviation="15" result="effect1_foregroundBlur"/></filter></defs></svg>
